svg/file/pin_fill.svg

<?xml version="1.0" encoding="UTF-8"?>
<svg width="24px" height="24px" viewBox="0 0 24 24" version="1.1" xmlns="http://www.w3.org/2000/svg" xmlns:xlink="http://www.w3.org/1999/xlink">
    <title>pin_fill</title>
    <g id="页面-1" stroke="none" stroke-width="1" fill="none" fill-rule="evenodd">
        <g id="File" transform="translate(-1008.000000, -48.000000)" fill-rule="nonzero">
            <g id="pin_fill" transform="translate(1008.000000, 48.000000)">
                 <path d="M24,0 L24,24 L0,24 L0,0 L24,0 Z M12.5934901,23.257841 L12.5819402,23.2595131 L12.5108777,23.2950439 L12.4918791,23.2987469 L12.4918791,23.2987469 L12.4767152,23.2950439 L12.4056548,23.2595131 C12.3958229,23.2563662 12.3870493,23.2590235 12.3821421,23.2649074 L12.3780323,23.275831 L12.360941,23.7031097 L12.3658947,23.7234994 L12.3769048,23.7357139 L12.4804777,23.8096931 L12.4953491,23.8136134 L12.4953491,23.8136134 L12.5071152,23.8096931 L12.6106902,23.7357139 L12.6232938,23.7196733 L12.6232938,23.7196733 L12.6266527,23.7031097 L12.609561,23.275831 C12.6075724,23.2657013 12.6010112,23.2592993 12.5934901,23.257841 L12.5934901,23.257841 Z M12.8583906,23.1452862 L12.8445485,23.1473072 L12.6598443,23.2396597 L12.6498822,23.2499052 L12.6498822,23.2499052 L12.6471943,23.2611114 L12.6650943,23.6906389 L12.6699349,23.7034178 L12.6699349,23.7034178 L12.678386,23.7104931 L12.8793402,23.8032389 C12.8914285,23.8068999 12.9022333,23.8029875 12.9078286,23.7952264 L12.9118235,23.7811639 L12.8776777,23.1665331 C12.8752882,23.1545897 12.8674102,23.1470016 12.8583906,23.1452862 L12.8583906,23.1452862 Z M12.1430473,23.1473072 C12.1332178,23.1423925 12.1221763,23.1452606 12.1156365,23.1525954 L12.1099173,23.1665331 L12.0757714,23.7811639 C12.0751323,23.7926639 12.0828099,23.8018602 12.0926481,23.8045676 L12.108256,23.8032389 L12.3092106,23.7104931 L12.3186497,23.7024347 L12.3186497,23.7024347 L12.3225043,23.6906389 L12.340401,23.2611114 L12.337245,23.2485176 L12.337245,23.2485176 L12.3277531,23.2396597 L12.1430473,23.1473072 Z" id="MingCute" fill-rule="nonzero"></path>
                <path d="M16.7345,2.83508 C16.0307,2.13129 14.9165,2.05211 14.1203,2.64929 L11.2068,4.83437 C9.99663,5.74202 8.57717,6.32998 7.07962,6.54392 L4.90332,6.85482 C4.17295,6.95916 3.63773,7.7455 3.99012,8.51567 C4.32112,9.23907 5.37504,11.1446 8.34983,14.2361 L4.17168,18.4142 C3.78115,18.8047 3.78115,19.4379 4.17168,19.8284 C4.5622,20.219 5.19537,20.219 5.58589,19.8284 L9.76405,15.6503 C12.8553,18.6249 14.7608,19.6788 15.4842,20.0098 C16.2544,20.3622 17.0407,19.8269 17.1451,19.0966 L17.456,16.9203 C17.6699,15.4227 18.2579,14.0033 19.1655,12.7931 L21.3506,9.8796 C21.9478,9.08336 21.8686,7.96917 21.1648,7.26539 L16.7345,2.83508 Z" id="路径" fill="#09244B"></path>
            </g>
        </g>
    </g>
</svg>

<svg xmlns="http://www.w3.org/2000/svg" width="24" height="24"><g fill="none" fill-rule="nonzero"><path d="M24 0v24H0V0h24ZM12.593 23.258l-.011.002-.071.035-.02.004-.014-.004-.071-.035c-.01-.004-.019-.001-.024.005l-.004.01-.017.428.005.02.01.013.104.074.015.004.012-.004.104-.074.012-.016.004-.017-.017-.427c-.002-.01-.009-.017-.017-.018Zm.265-.113-.013.002-.185.093-.01.01-.003.011.018.43.005.012.008.007.201.093c.012.004.023 0 .029-.008l.004-.014-.034-.614c-.003-.012-.01-.02-.02-.022Zm-.715.002a.023.023 0 0 0-.027.006l-.006.014-.034.614c0 .012.007.02.017.024l.015-.002.201-.093.01-.008.004-.011.017-.43-.003-.012-.01-.01-.184-.092Z"/><path fill="#09244B" d="M16.735 2.835a2 2 0 0 0-2.615-.186l-2.913 2.185a9 9 0 0 1-4.127 1.71l-2.177.31c-.73.105-1.265.891-.913 1.662.331.723 1.385 2.629 4.36 5.72l-4.178 4.178a1 1 0 1 0 1.414 1.414l4.178-4.178c3.091 2.975 4.997 4.029 5.72 4.36.77.352 1.557-.183 1.661-.913l.311-2.177a9 9 0 0 1 1.71-4.127L21.35 9.88a2 2 0 0 0-.186-2.615l-4.43-4.43Z"/></g></svg>
